X: 39331
T: Tam Lin
R: reel
M: 4/4
K: Dminor
DE|:FDEC DFED|(3B,B,B, DB, FB,DB,|(3CCC EC GCEC|FEDA, CDDE|
(3FED EC DFED|(3B,B,B, DB, FB,DB,|(3CCC EC GCEC|1 FAGE FDDE:|2 FAGE FDD^c||
|:dA (3AAA FDED|dA (3AAA FDED|cG (3GGG cGcd|edeg fed^c|
dA (3AAA FDED|dA (3AAA FDEA,|B,A,B,C DCDE|1 (3FED GE FDD^c:|2 (3FED GE FDDe||
|:fd (3ddd AGFE|DEFG A=Bcd|ec (3ccc ecgc|ec (3ccc agfe|
fd (3ddd Adfa|fdAG FEDA,|B,A,B,C DCDE|1 (3FED GE FDDe:|2 (3FED GE FDDE||

